X: 8
T:Connaughtman's Rambles, The
R:Jig
D:asin=B000005CSE(Matt Molloy: Stony Steps)
D:asin=B000005CTU(Brendan Power: New Irish Harmonica)
D:asin=B000003JM2(Karen Ashbrook: Hills Of Erin)
D:anop=B0000003EN(Ashley MacIsaac: A Compilation)
D:anop=B000009DPZ(Steeleye Span: The Big Squeeze)
Z:As played by the CHB
M:6/8
L:1/8
Q:300
K:D
AG|"D"FAA dAA|"G"BAB "D"dAG|FAA dfe|"Bm"dBB BAG|
       "D"FAA dAA|"G"BAB "D"def|"Em"gfe dfe|1"Bm"dBB B2A:|2"Bm"dBB g2:|\
|"D"faa "G"gbb|"D"afe dcd|faa "G"gbb|"D"afd e2g|
"D"faa "G"gbb|"D"afe def|"Em"gfg efe|1"Bm"dBB B2g:|2"Bm"dBB B2B:|

